X: 7804
T:Shaalds of Foula
R:Reel
O:Shetland
M:4/4
K:A
A>AA2 {g}f>e c<A | A2A>B A2G>F |\
E>AA2 {g}f>e c<A | B>A B>d e2A2:|
|:\
a2A2 e>A c<e | a>e c>A e>A c>e|\
a>e c>A e>A c>A | {c}B>A B>d e2A2:|
